!!!COM: Corelli, Arcangelo
!!!OTL: 
!!!ONM: Opus 6, No. 7
!!!OMV: 4
!!!CDT: 1653/2/17/-1713/1/8/
!!!OCY: Italia
**kern	**kern	**kern	**kern	**kern	**kern	**kern
*clefC	*clefG	*clefG	*clefG	*clefC	*clefG	*clefG
*k[f#c#]	*k[f#c#]	*k[f#c#]	*k[f#c#]	*k[f#c#]	*k[f#c#]	*k[f#c#]
*b:	*b:	*b:	*b:	*b:	*b:	*b:
*M4/4	*M4/4	*M4/4	*M4/4	*M4/4	*M4/4	*M4/4
=1	=1	=1	=1	=1	=1	=1
2..r	2..r	2..r	2..r	8BB	4.r	8r
.	.	.	.	8B	.	16dd
.	.	.	.	.	.	16b
.	.	.	.	8A#	.	8cc#
.	.	.	.	8F#	16ff#	8f#
.	.	.	.	.	16cc#	.
.	.	.	.	8BB	8dd	16r
.	.	.	.	.	.	16ff#
.	.	.	.	8B	8b	16dd
.	.	.	.	.	.	16b
.	.	.	.	8A#	16r	8cc#
.	.	.	.	.	16gg	.
8F#	8f#	8a#	8cc#	8F#	16ff#	8f#
.	.	.	.	.	16cc#	.
=2	=2	=2	=2	=2	=2	=2
4BB	4f#	4b	4dd	8r	4dd	8r
.	.	.	.	8B	.	16dd
.	.	.	.	.	.	16b
2r	2r	2r	2r	8G#	8r	8ee
.	.	.	.	8E	16ee	8e
.	.	.	.	.	16b	.
.	.	.	.	8AA	8cc#	16r
.	.	.	.	.	.	16ee
.	.	.	.	8A	8a	16cc#
.	.	.	.	.	.	16a
8r	8r	8r	8r	8G#	16r	8b
.	.	.	.	.	16ff#	.
8E	8e	8g#	8b	8E	16ee	8e
.	.	.	.	.	16b	.
=3	=3	=3	=3	=3	=3	=3
4AA	4e	4a	4cc#	8r	4cc#	8r
.	.	.	.	8F#	.	16a
.	.	.	.	.	.	16f#
2r	2r	2r	2r	8E#	8r	8g#
.	.	.	.	8C#	16cc#	8c#
.	.	.	.	.	16g#	.
.	.	.	.	8FF#	8a	16r
.	.	.	.	.	.	16cc#
.	.	.	.	8F#	8f#	16a
.	.	.	.	.	.	16f#
8r	8r	8r	8r	8E#	16r	8g#
.	.	.	.	.	16dd	.
8C#	8c#	8e#	8g#	8C#	16cc#	8c#
.	.	.	.	.	16g#	.
=4	=4	=4	=4	=4	=4	=4
8F#	8c#	4f#	8a	8r	4a	8r
8AA	8f#	.	4cc#	8AA	.	4cc#
8BB	8f#	4dd	.	8BB	4dd	.
8B	8b	.	4b	8B	.	4b
8c#	8g#	8e#	.	8c#	8e#	.
8F#	8a	4f#	8a	8F#	4f#	8a
8BB	8d	.	4g#	8BB	.	4g#
8C#	8c#	8e#	.	8C#	8e#	.
=5	=5	=5	=5	=5	=5	=5
4FF#	4c#	4f#	4f#	8FF#	4f#	8f#
.	.	.	.	8f#	.	16aa
.	.	.	.	.	.	16ff#
2r	2r	2r	2r	8e#	8r	8gg#
.	.	.	.	8c#	16ccc#	8cc#
.	.	.	.	.	16gg#	.
.	.	.	.	8F#	8aa	8r
.	.	.	.	8f#	8ff#	16aa
.	.	.	.	.	.	16ff#
8r	8r	8r	8r	8e#	8r	8gg#
8C#	8c#	8ee#	8gg#	8c#	16ccc#	8cc#
.	.	.	.	.	16gg#	.
=6	=6	=6	=6	=6	=6	=6
4FF#	4c#	4ff#	4aa	8r	4aa	8r
.	.	.	.	8A	.	16cc#
.	.	.	.	.	.	16dd
2r	2r	2r	2r	8G#	8r	4.ee
.	.	.	.	8E	16ee	.
.	.	.	.	.	16b	.
.	.	.	.	8AA	8cc#	.
.	.	.	.	8A	8a	16cc#
.	.	.	.	.	.	16dd
8r	8r	8r	8r	8G#	8r	[4ee
8E	8e	8g#	8b	8E	16ee	.
.	.	.	.	.	16b	.
=7	=7	=7	=7	=7	=7	=7
4AA	4e	4a	4cc#	8r	4cc#	8ee]
.	.	.	.	8B	.	16dd
.	.	.	.	.	.	16ee
2r	2r	2r	2r	8A#	8r	4.ff#
.	.	.	.	8F#	16ff#	.
.	.	.	.	.	16cc#	.
.	.	.	.	8BB	8dd	.
.	.	.	.	8B	8b	16dd
.	.	.	.	.	.	16ee
8r	8r	8r	8r	8A#	8r	[4ff#
8F#	8f#	8a#	8cc#	8F#	16ff#	.
.	.	.	.	.	16cc#	.
=8	=8	=8	=8	=8	=8	=8
4BB	4f#	4b	4dd	8r	4dd	8ff#]
.	.	.	.	8B	.	16ff#
.	.	.	.	.	.	16gg
2r	2r	2r	2r	8c#	8r	4.aa
.	.	.	.	8A	16aa	.
.	.	.	.	.	16ee	.
.	.	.	.	8d	4ff#	.
.	.	.	.	8D	.	16ff#
.	.	.	.	.	.	16gg
8r	8r	8r	8r	8C#	8r	4aa
8A	8a	8cc#	8ee	8AA	16aa	.
.	.	.	.	.	16ee	.
=9	=9	=9	=9	=9	=9	=9
4D	4a	4dd	4ff#	8D	4ff#	8r
.	.	.	.	8d	.	8bb
8r	8r	8r	8r	8c#	8r	4aa
8C#	8a	8ee	8aa	8C#	8ee	.
4BB	4b	4dd	4gg	8BB	4dd	8r
.	.	.	.	8B	.	8gg
8r	8r	8r	8r	8A	8r	4ff#
8AA	8f#	8cc#	8ff#	8AA	8cc#	.
=10	=10	=10	=10	=10	=10	=10
4GG	4g	4b	4ee	8GG	4b	8r
.	.	.	.	8G	.	8ee
8r	8r	8r	8r	8F#	8r	4dd
8FF#	8d	8a	8dd	8FF#	8a	.
4EE	4e	4g	4cc#	8EE	4g	8r
.	.	.	.	8E	.	8cc#
8r	8r	8r	8r	8D	8r	4dd
8DD	8A	8f#	8dd	8DD	8f#	.
=11	=11	=11	=11	=11	=11	=11
4AA	4A	4e	4cc#	8AA	4e	8cc#
.	.	.	.	8F#	.	8aa
8r	8r	8r	8r	8G	4.r	8bb
8A	8e	8cc#	8aa	8A	.	8cc#
4B	4d	4ff#	4ff#	8B	.	[2dd
.	.	.	.	8F#	8aa	.
8r	8r	8r	8r	8G	8bb	.
8A	8e	8cc#	8aa	8A	8cc#	.
=12	=12	=12	=12	=12	=12	=12
4B	4d	4dd	4ff#	8B	4dd	8dd]
.	.	.	.	8F#	.	8aa
8r	8r	8r	8r	8G	8r	8bb
8G	8g	8bb	4gg	8GG	8bb	4gg
8A	8e	8cc#	.	8AA	8cc#	.
8D	16f#	4dd	8ff#	8D	4dd	8ff#
.	16g	.	.	.	.	.
8A	8.a	.	4ee	8A	.	4ee
8AA	.	8cc#	.	8AA	8cc#	.
.	16a	.	.	.	.	.
=13	=13	=13	=13	=13	=13	=13
4D	4f#	4dd	4dd	8BB	4dd	8dd
.	.	.	.	8B	.	16dd
.	.	.	.	.	.	16b
2r	2r	2r	2r	8A#	8r	8cc#
.	.	.	.	8F#	16ff#	8f#
.	.	.	.	.	16cc#	.
.	.	.	.	8BB	8dd	16r
.	.	.	.	.	.	16ff#
.	.	.	.	8B	8b	16dd
.	.	.	.	.	.	16b
8r	8r	8r	8r	8A#	16r	8cc#
.	.	.	.	.	16gg	.
8F#	8f#	8a#	8cc#	8F#	16ff#	8f#
.	.	.	.	.	16cc#	.
=14	=14	=14	=14	=14	=14	=14
4BB	4f#	4b	4dd	8r	4dd	8r
.	.	.	.	8f#	.	16aa
.	.	.	.	.	.	16ff#
2r	2r	2r	2r	8e#	8r	8gg#
.	.	.	.	8c#	16ccc#	8cc#
.	.	.	.	.	16gg#	.
.	.	.	.	8F#	8aa	8r
.	.	.	.	8f#	8ff#	16aa
.	.	.	.	.	.	16ff#
8r	8r	8r	8r	8e#	8r	8gg#
8c#	8cc#	8ee#	8gg#	8c#	16ccc#	8cc#
.	.	.	.	.	16gg#	.
=15	=15	=15	=15	=15	=15	=15
4F#	4cc#	4ff#	4aa	8r	4aa	8r
.	.	.	.	8f#	.	16aa
.	.	.	.	.	.	16ff#
4.r	4.r	2r	4.r	8d#	8r	8bb
.	.	.	.	8B	16bb	8b
.	.	.	.	.	16ff#	.
.	.	.	.	8e	8gg	8r
8E	8e	.	16g	8E	8ee	16g
.	.	.	16e	.	.	16e
8D#	4b	8r	8f#	8D#	8r	8f#
8BB	.	16b	8B	8BB	16b	8B
.	.	16f#	.	.	16f#	.
=16	=16	=16	=16	=16	=16	=16
8E	8r	4g	8r	8E	4g	8r
8G	8g	.	8b	8G	.	8b
8A	8e	8r	8cc	8A	8r	8cc
8AA	8a	8cc	4a	8AA	8cc	4a
8BB	8f#	8d#	.	8BB	8d#	.
8E	16g	4e	8g	8E	4e	8g
.	16a	.	.	.	.	.
8B	8.b	.	4f#	8B	.	4f#
8BB	.	8d#	.	8BB	8d#	.
.	16b	.	.	.	.	.
=17	=17	=17	=17	=17	=17	=17
4E	4b	4e	4e	8E	4e	8e
.	.	.	.	8e	.	16gg
.	.	.	.	.	.	16ee
4.r	4.r	2r	4r	8d#	8r	8ff#
.	.	.	.	8B	16bb	8b
.	.	.	.	.	16ff#	.
.	.	.	16r	8e	8gg	16r
.	.	.	16bb	.	.	16bb
8E	8e	.	16gg	8E	8ee	16gg
.	.	.	16ee	.	.	16ee
8D#	4b	8r	8ff#	8D#	8r	8ff#
8BB	.	16bb	8b	8BB	16bb	8b
.	.	16ff#	.	.	16ff#	.
=18	=18	=18	=18	=18	=18	=18
8E	8r	8gg	8r	8E	8gg	8r
8B	8B	4ff#	4dd	8B	4ff#	4dd
8D	8B	.	.	8D	.	.
8E	8B	16ee	16cc#	8E	16ee	16cc#
.	.	16dd	16b	.	16dd	16b
4F#	4f#	4cc#	4a#	8F#	4cc#	8a#
.	.	.	.	8D	.	8ff#
8r	8r	8r	8r	8E	4r	8gg
8F#	8c#	8a#	8ff#	8F#	.	8a#
=19	=19	=19	=19	=19	=19	=19
4G	4B	4b	4dd	8G	8r	[2b
.	.	.	.	8D	8ff#	.
8r	8r	8r	8r	8E	8gg	.
8F#	8c#	8a#	8ff#	8F#	8a#	.
4G	4B	4b	4dd	8G	4b	8b]
.	.	.	.	8D	.	8ff#
8r	8r	8r	8r	8E	8r	8gg
8E	8e	8gg	[8ee	8E	8gg	[8ee
=20	=20	=20	=20	=20	=20	=20
8F#	8c#	8a#	8ee]	8F#	8a#	8ee]
8BB	16d	4b	8dd	8BB	4b	8dd
.	16e	.	.	.	.	.
8F#	8.f#	.	4cc#	8F#	.	4cc#
8FF#	.	8a#	.	8FF#	8a#	.
.	16f#	.	.	.	.	.
8BB	8f#	8b	4b	8BB	8b	4b
8E	8e	16g	.	8E	16g	.
.	.	16e	.	.	16e	.
8D#	4b	8f#	8r	8D#	8f#	8r
8BB	.	8B	16b	8BB	8B	16b
.	.	.	16f#	.	.	16f#
=21	=21	=21	=21	=21	=21	=21
8r	8r	16r	8g	8r	16r	8g
.	.	16b	.	.	16b	.
8E	8e	16g	8e	8E	16g	8e
.	.	16e	.	.	16e	.
8D#	4b	8f#	16r	8D#	8f#	16r
.	.	.	16cc	.	.	16cc
8BB	.	8B	16b	8BB	8B	16b
.	.	.	16f#	.	.	16f#
8r	8r	8r	8g	8r	8r	8g
8E	8e	16g	8e	8E	16g	8e
.	.	16e	.	.	16e	.
8D#	4b	8f#	8r	8D#	8f#	8r
8BB	.	8f#	16b	8BB	8f#	16b
.	.	.	16f#	.	.	16f#
=22	=22	=22	=22	=22	=22	=22
8E	8r	4B	4g	8E	4B	4g
8EE	8b	.	.	8EE	.	.
4FF#	4f#	4A#	2f#	4FF#	4A#	2f#
2GG	2B	2B	.	2GG	2B	.
.	.	.	4e	.	.	4e
=23	=23	=23	=23	=23	=23	=23
1FF#	1c#	1A#	1f#	1FF#	1A#	1f#
==	==	==	==	==	==	==
*-	*-	*-	*-	*-	*-	*-
!!!RWG: This file only contains pitch and duration data.
!!!RWG: Transposing instruments are not transposed.
!!!RWG: Durations of rests and tied notes may be interpreted.
!!!RWG: Key is interpreted using the Humdrum key tool.
!!!SCA: 
!!!YOR: Chrysander Edition
!!!AGN: concerto grosso
!!!AFT: stage1
!!!ENC: F. Bennion
!!!END: 1997/04/15
!!!AST: baroque
!!!YEC: Copyright 1994, Center for Computer Assisted Research in the Humanities
!!!YEM: Rights to all derivative electronic formats reserved.
!!!YEM: Refer to licensing agreement for further details.
!!!YEN: United States of America
!!!EED: W.B. Hewlett
!!!KEY: 3456463069
!!!EMD: Converted from MuseData to Humdrum Aug 9, 1999, by Bret Aarden using muse2kern.
!!!VTS: 4042005017
